X:694
T:Jackson's bottle of brandy
T:Pay the reckoning
T:Fishing for eels
T:The bottle of claret
T:The bottle of punch
R:Jig
O:Ireland
B:Kerr's First p38
B:Kerr's Third p30
B:O'Neill's 898
B:O'Neill's 1006
S:1 O'Neill's 898
Z:1 Transcription:Dan G. Petersen, minor arr.,chords:Mike Long
S:2 Kerr's First p38
Z:2 Transcription, chords:Mike Long
M:6/8
L:1/8
K:G
P:Arr. O'Neill's
"G"G2e dBG|BAB dBA|G2e dBG|"D"A2A BGE|\
"G"G2e dBG|BAB def|"C"gfe dBG|"D"AGA BGE:|
|:"G"gbg "D"faf|"C"ege "G"def|"G"gfg aga|"D"bab afd|\
"G"gbg "D"faf|"C"ege "G"def|"(C)"gfe dBG|"D"AGA BGE:|
P:Arr. Kerr's
K:D
"D"D2d AFD|"A"EDE "G"GFE|"D"D2d AFD|"A"EDE "G"FDB,|\
"D"D2d AFD|"A"EDE "G"FGA|"G"BdB "D"AFD|"A"EDE FDB,:|
|:"D"dfd "A"cec|"G"BdB "D"ABc|"D"dcd efg|"D"faf "A"ecA|\
"D"dfd "A"cec|"G"BdB "D"ABc|"D"dcB AFD|"A"EDE "G"FDB,:|
